src/assets/img/icons/mask/icon-partner-binence.svg

<svg width="220" height="44" viewBox="0 0 220 44" fill="none" xmlns="http://www.w3.org/2000/svg">
<path d="M13.409 18.4254L21.9244 9.91038L30.4443 18.4299L35.3992 13.4751L21.9244 0L8.4541 13.4706L13.409 18.4254ZM4.95484 16.9688L9.9097 21.9233L4.95484 26.8785L0 21.9236L4.95484 16.9688ZM13.409 25.423L21.9244 33.938L30.444 25.4188L35.4015 30.3708L35.3992 30.3736L21.9244 43.8484L8.45376 30.378L8.44682 30.3712L13.409 25.423ZM43.849 21.9257L38.8945 26.8806L33.9393 21.9261L38.8942 16.9709L43.849 21.9257Z" fill="#4D4D5D"/>
<path d="M13.409 18.4254L21.9244 9.91038L30.4443 18.4299L35.3992 13.4751L21.9244 0L8.4541 13.4706L13.409 18.4254ZM4.95484 16.9688L9.9097 21.9233L4.95484 26.8785L0 21.9236L4.95484 16.9688ZM13.409 25.423L21.9244 33.938L30.444 25.4188L35.4015 30.3708L35.3992 30.3736L21.9244 43.8484L8.45376 30.378L8.44682 30.3712L13.409 25.423ZM43.849 21.9257L38.8945 26.8806L33.9393 21.9261L38.8942 16.9709L43.849 21.9257Z" fill="url(#paint0_linear)" fill-opacity="0.4"/>
<path d="M26.951 21.9215H26.953L21.9252 16.8935L18.2095 20.6093H18.2092L17.7824 21.0364L16.9017 21.917L16.8948 21.924L16.9017 21.9313L21.9252 26.9546L26.953 21.9267L26.9556 21.924L26.951 21.9215ZM51.5743 10.6248H62.3509C65.0254 10.6248 67.048 11.3112 68.4187 12.684C69.4795 13.7473 70.0098 15.065 70.0098 16.637V16.7035C70.0098 17.3677 69.9278 17.9548 69.7624 18.4639C69.6079 18.9519 69.3856 19.416 69.1021 19.8421C68.8342 20.2443 68.5123 20.6075 68.1451 20.9217C67.7853 21.2298 67.3923 21.4972 66.9735 21.719C68.318 22.2287 69.3764 22.9203 70.1479 23.7951C70.9192 24.6702 71.3054 25.8827 71.3054 27.4326V27.4987C71.3054 28.5619 71.101 29.4918 70.692 30.2894C70.283 31.0864 69.697 31.7509 68.9341 32.2825C68.1712 32.814 67.2537 33.2124 66.1815 33.4783C65.1093 33.744 63.9211 33.8766 62.6172 33.8766H51.5743V10.6248ZM61.2733 20.0251C62.4032 20.0251 63.3001 19.8318 63.9641 19.444C64.6283 19.0564 64.9604 18.4306 64.9604 17.5672V17.5007C64.9604 16.726 64.6723 16.1338 64.0966 15.7237C63.5207 15.314 62.6903 15.109 61.6055 15.109H56.5565V20.0251H61.2733ZM62.6354 29.3927C63.7648 29.3927 64.6501 29.1885 65.2928 28.7784C65.935 28.3687 66.2563 27.7317 66.2563 26.8681V26.8019C66.2563 26.0269 65.957 25.4124 65.3593 24.9581C64.7613 24.5048 63.7981 24.2775 62.4692 24.2775H56.5565V29.393H62.6354V29.3927ZM77.7234 10.6248H82.8394V33.8773H77.7234V10.6248ZM90.5876 10.6248H95.3038L106.2 24.9418V10.6248H111.249V33.8773H106.897L95.6363 19.0955V33.8773H90.5876V10.6248ZM126.736 10.4589H131.453L141.418 33.8773H136.07L133.944 28.6623H124.112L121.986 33.8773H116.77L126.736 10.4589ZM132.117 24.1442L129.028 16.6041L125.939 24.1442H132.117ZM146.941 10.6248H151.658L162.552 24.9418V10.6248H167.602V33.8773H163.251L151.99 19.0955V33.8773H146.941V10.6248ZM186.012 34.2755C184.307 34.2755 182.724 33.9653 181.261 33.3457C179.801 32.7262 178.539 31.8787 177.475 30.8043C176.412 29.7305 175.581 28.4625 174.984 27.001C174.387 25.5392 174.087 23.978 174.087 22.317V22.2509C174.087 20.5899 174.387 19.0345 174.984 17.5838C175.582 16.1335 176.412 14.86 177.475 13.7639C178.537 12.6678 179.811 11.8037 181.296 11.1727C182.778 10.5417 184.418 10.2262 186.212 10.2262C187.296 10.2262 188.287 10.3152 189.184 10.4918C190.081 10.6695 190.895 10.9126 191.626 11.2226C192.34 11.524 193.02 11.9027 193.653 12.3519C194.268 12.7911 194.844 13.2801 195.379 13.8138L192.124 17.5672C191.216 16.7482 190.292 16.1053 189.351 15.6406C188.409 15.1758 187.351 14.9431 186.178 14.9431C185.203 14.9431 184.301 15.1315 183.472 15.5079C182.655 15.8732 181.927 16.405 181.328 17.0688C180.731 17.7332 180.266 18.503 179.933 19.3774C179.601 20.2526 179.435 21.1881 179.435 22.1844V22.2505C179.435 23.247 179.601 24.1885 179.933 25.0738C180.266 25.96 180.724 26.7348 181.312 27.399C181.898 28.0632 182.607 28.5897 183.438 28.9772C184.269 29.365 185.181 29.5584 186.178 29.5584C187.507 29.5584 188.63 29.3148 189.55 28.8276C190.468 28.341 191.382 27.6763 192.29 26.8345L195.546 30.1232C194.97 30.7446 194.348 31.322 193.685 31.8503C193.034 32.3656 192.326 32.806 191.576 33.1629C190.812 33.5279 189.975 33.8052 189.068 33.993C188.16 34.181 187.141 34.2755 186.012 34.2755ZM201.566 10.6248H219.071V15.1758H206.616V19.8928H217.576V24.4435H206.616V29.3267H219.238V33.8773H201.566V10.6248Z" fill="#4D4D5D"/>
<path d="M26.951 21.9215H26.953L21.9252 16.8935L18.2095 20.6093H18.2092L17.7824 21.0364L16.9017 21.917L16.8948 21.924L16.9017 21.9313L21.9252 26.9546L26.953 21.9267L26.9556 21.924L26.951 21.9215ZM51.5743 10.6248H62.3509C65.0254 10.6248 67.048 11.3112 68.4187 12.684C69.4795 13.7473 70.0098 15.065 70.0098 16.637V16.7035C70.0098 17.3677 69.9278 17.9548 69.7624 18.4639C69.6079 18.9519 69.3856 19.416 69.1021 19.8421C68.8342 20.2443 68.5123 20.6075 68.1451 20.9217C67.7853 21.2298 67.3923 21.4972 66.9735 21.719C68.318 22.2287 69.3764 22.9203 70.1479 23.7951C70.9192 24.6702 71.3054 25.8827 71.3054 27.4326V27.4987C71.3054 28.5619 71.101 29.4918 70.692 30.2894C70.283 31.0864 69.697 31.7509 68.9341 32.2825C68.1712 32.814 67.2537 33.2124 66.1815 33.4783C65.1093 33.744 63.9211 33.8766 62.6172 33.8766H51.5743V10.6248ZM61.2733 20.0251C62.4032 20.0251 63.3001 19.8318 63.9641 19.444C64.6283 19.0564 64.9604 18.4306 64.9604 17.5672V17.5007C64.9604 16.726 64.6723 16.1338 64.0966 15.7237C63.5207 15.314 62.6903 15.109 61.6055 15.109H56.5565V20.0251H61.2733ZM62.6354 29.3927C63.7648 29.3927 64.6501 29.1885 65.2928 28.7784C65.935 28.3687 66.2563 27.7317 66.2563 26.8681V26.8019C66.2563 26.0269 65.957 25.4124 65.3593 24.9581C64.7613 24.5048 63.7981 24.2775 62.4692 24.2775H56.5565V29.393H62.6354V29.3927ZM77.7234 10.6248H82.8394V33.8773H77.7234V10.6248ZM90.5876 10.6248H95.3038L106.2 24.9418V10.6248H111.249V33.8773H106.897L95.6363 19.0955V33.8773H90.5876V10.6248ZM126.736 10.4589H131.453L141.418 33.8773H136.07L133.944 28.6623H124.112L121.986 33.8773H116.77L126.736 10.4589ZM132.117 24.1442L129.028 16.6041L125.939 24.1442H132.117ZM146.941 10.6248H151.658L162.552 24.9418V10.6248H167.602V33.8773H163.251L151.99 19.0955V33.8773H146.941V10.6248ZM186.012 34.2755C184.307 34.2755 182.724 33.9653 181.261 33.3457C179.801 32.7262 178.539 31.8787 177.475 30.8043C176.412 29.7305 175.581 28.4625 174.984 27.001C174.387 25.5392 174.087 23.978 174.087 22.317V22.2509C174.087 20.5899 174.387 19.0345 174.984 17.5838C175.582 16.1335 176.412 14.86 177.475 13.7639C178.537 12.6678 179.811 11.8037 181.296 11.1727C182.778 10.5417 184.418 10.2262 186.212 10.2262C187.296 10.2262 188.287 10.3152 189.184 10.4918C190.081 10.6695 190.895 10.9126 191.626 11.2226C192.34 11.524 193.02 11.9027 193.653 12.3519C194.268 12.7911 194.844 13.2801 195.379 13.8138L192.124 17.5672C191.216 16.7482 190.292 16.1053 189.351 15.6406C188.409 15.1758 187.351 14.9431 186.178 14.9431C185.203 14.9431 184.301 15.1315 183.472 15.5079C182.655 15.8732 181.927 16.405 181.328 17.0688C180.731 17.7332 180.266 18.503 179.933 19.3774C179.601 20.2526 179.435 21.1881 179.435 22.1844V22.2505C179.435 23.247 179.601 24.1885 179.933 25.0738C180.266 25.96 180.724 26.7348 181.312 27.399C181.898 28.0632 182.607 28.5897 183.438 28.9772C184.269 29.365 185.181 29.5584 186.178 29.5584C187.507 29.5584 188.63 29.3148 189.55 28.8276C190.468 28.341 191.382 27.6763 192.29 26.8345L195.546 30.1232C194.97 30.7446 194.348 31.322 193.685 31.8503C193.034 32.3656 192.326 32.806 191.576 33.1629C190.812 33.5279 189.975 33.8052 189.068 33.993C188.16 34.181 187.141 34.2755 186.012 34.2755ZM201.566 10.6248H219.071V15.1758H206.616V19.8928H217.576V24.4435H206.616V29.3267H219.238V33.8773H201.566V10.6248Z" fill="url(#paint1_linear)" fill-opacity="0.4"/>
<defs>
<linearGradient id="paint0_linear" x1="21.9245" y1="0" x2="21.9245" y2="43.8484" gradientUnits="userSpaceOnUse">
<stop stop-color="white"/>
<stop offset="1" stop-color="white" stop-opacity="0"/>
</linearGradient>
<linearGradient id="paint1_linear" x1="118.067" y1="10.2262" x2="118.067" y2="34.2755" gradientUnits="userSpaceOnUse">
<stop stop-color="white"/>
<stop offset="1" stop-color="white" stop-opacity="0"/>
</linearGradient>
</defs>
</svg>

<svg xmlns="http://www.w3.org/2000/svg" width="220" height="44" fill="none"><path fill="#4D4D5D" d="M13.4 18.43l8.52-8.52 8.52 8.52 4.96-4.95L21.92 0 8.45 13.47l4.96 4.96zm-8.45-1.46l4.96 4.95-4.96 4.96L0 21.92l4.95-4.95zm8.46 8.45l8.51 8.52 8.52-8.52 4.96 4.95-13.48 13.48L8.45 30.38l4.96-4.96zm30.44-3.5l-4.96 4.96-4.95-4.95 4.95-4.96 4.96 4.96z"/><path fill="url(#paint0_linear)" fill-opacity=".4" d="M13.4 18.43l8.52-8.52 8.52 8.52 4.96-4.95L21.92 0 8.45 13.47l4.96 4.96zm-8.45-1.46l4.96 4.95-4.96 4.96L0 21.92l4.95-4.95zm8.46 8.45l8.51 8.52 8.52-8.52 4.96 4.95-13.48 13.48L8.45 30.38l4.96-4.96zm30.44-3.5l-4.96 4.96-4.95-4.95 4.95-4.96 4.96 4.96z"/><path fill="#4D4D5D" d="M26.95 21.92l-5.02-5.03-3.72 3.72-.43.43-.88.88v.01l5.03 5.02 5.02-5.02zm24.62-11.3h10.78c2.68 0 4.7.7 6.07 2.06A5.37 5.37 0 0170 16.64v.06a5.7 5.7 0 01-.9 3.14c-.28.4-.6.77-.96 1.08-.36.31-.76.58-1.18.8 1.35.5 2.4 1.2 3.18 2.08a5.31 5.31 0 011.16 3.63v.07c0 1.06-.2 2-.62 2.79-.4.8-1 1.46-1.76 2-.76.52-1.68.92-2.75 1.19-1.07.26-2.26.4-3.56.4H51.57V10.62zm9.7 9.4c1.13 0 2.03-.19 2.7-.58.66-.38.99-1 .99-1.87v-.07c0-.77-.29-1.37-.86-1.78a4.27 4.27 0 00-2.5-.61h-5.04v4.92h4.71zm1.37 9.37c1.12 0 2.01-.2 2.65-.61.64-.41.97-1.05.97-1.91v-.07c0-.77-.3-1.39-.9-1.84-.6-.46-1.56-.68-2.9-.68h-5.9v5.11h6.08zm15.08-18.77h5.12v23.26h-5.12V10.62zm12.87 0h4.71l10.9 14.32V10.62h5.05v23.26h-4.35L95.64 19.1v14.78h-5.05V10.62zm36.15-.16h4.71l9.97 23.42h-5.35l-2.13-5.22h-9.83L122 33.88h-5.22l9.97-23.42zm5.38 13.68l-3.1-7.54-3.08 7.54h6.18zm14.82-13.52h4.72l10.9 14.32V10.62h5.04v23.26h-4.35L152 19.1v14.78h-5.05V10.62zm39.07 23.66a12.05 12.05 0 01-8.53-3.48 11.55 11.55 0 01-2.5-3.8c-.6-1.46-.9-3.02-.9-4.68v-.07a12.14 12.14 0 013.4-8.49 11.53 11.53 0 013.82-2.59c1.48-.63 3.12-.94 4.91-.94 1.09 0 2.08.09 2.97.26.9.18 1.72.42 2.45.73.71.3 1.39.68 2.02 1.13.62.44 1.2.93 1.73 1.46l-3.26 3.76a12.3 12.3 0 00-2.77-1.93 7.08 7.08 0 00-5.88-.13c-.81.36-1.54.9-2.14 1.56a7.31 7.31 0 00-1.4 2.3c-.33.88-.5 1.82-.5 2.81v.07c0 1 .17 1.94.5 2.82.34.89.8 1.66 1.38 2.33a6.42 6.42 0 004.87 2.16c1.33 0 2.45-.25 3.37-.73.92-.49 1.83-1.15 2.74-2l3.26 3.3c-.58.61-1.2 1.2-1.87 1.72a11.05 11.05 0 01-4.61 2.14c-.91.2-1.93.29-3.06.29zm15.56-23.66h17.5v4.56h-12.45v4.71h10.96v4.55h-10.96v4.89h12.62v4.55h-17.67V10.62z"/><path fill="url(#paint1_linear)" fill-opacity=".4" d="M26.95 21.92l-5.02-5.03-3.72 3.72-.43.43-.88.88v.01l5.03 5.02 5.02-5.02zm24.62-11.3h10.78c2.68 0 4.7.7 6.07 2.06A5.37 5.37 0 0170 16.64v.06a5.7 5.7 0 01-.9 3.14c-.28.4-.6.77-.96 1.08-.36.31-.76.58-1.18.8 1.35.5 2.4 1.2 3.18 2.08a5.31 5.31 0 011.16 3.63v.07c0 1.06-.2 2-.62 2.79-.4.8-1 1.46-1.76 2-.76.52-1.68.92-2.75 1.19-1.07.26-2.26.4-3.56.4H51.57V10.62zm9.7 9.4c1.13 0 2.03-.19 2.7-.58.66-.38.99-1 .99-1.87v-.07c0-.77-.29-1.37-.86-1.78a4.27 4.27 0 00-2.5-.61h-5.04v4.92h4.71zm1.37 9.37c1.12 0 2.01-.2 2.65-.61.64-.41.97-1.05.97-1.91v-.07c0-.77-.3-1.39-.9-1.84-.6-.46-1.56-.68-2.9-.68h-5.9v5.11h6.08zm15.08-18.77h5.12v23.26h-5.12V10.62zm12.87 0h4.71l10.9 14.32V10.62h5.05v23.26h-4.35L95.64 19.1v14.78h-5.05V10.62zm36.15-.16h4.71l9.97 23.42h-5.35l-2.13-5.22h-9.83L122 33.88h-5.22l9.97-23.42zm5.38 13.68l-3.1-7.54-3.08 7.54h6.18zm14.82-13.52h4.72l10.9 14.32V10.62h5.04v23.26h-4.35L152 19.1v14.78h-5.05V10.62zm39.07 23.66a12.05 12.05 0 01-8.53-3.48 11.55 11.55 0 01-2.5-3.8c-.6-1.46-.9-3.02-.9-4.68v-.07a12.14 12.14 0 013.4-8.49 11.53 11.53 0 013.82-2.59c1.48-.63 3.12-.94 4.91-.94 1.09 0 2.08.09 2.97.26.9.18 1.72.42 2.45.73.71.3 1.39.68 2.02 1.13.62.44 1.2.93 1.73 1.46l-3.26 3.76a12.3 12.3 0 00-2.77-1.93 7.08 7.08 0 00-5.88-.13c-.81.36-1.54.9-2.14 1.56a7.31 7.31 0 00-1.4 2.3c-.33.88-.5 1.82-.5 2.81v.07c0 1 .17 1.94.5 2.82.34.89.8 1.66 1.38 2.33a6.42 6.42 0 004.87 2.16c1.33 0 2.45-.25 3.37-.73.92-.49 1.83-1.15 2.74-2l3.26 3.3c-.58.61-1.2 1.2-1.87 1.72a11.05 11.05 0 01-4.61 2.14c-.91.2-1.93.29-3.06.29zm15.56-23.66h17.5v4.56h-12.45v4.71h10.96v4.55h-10.96v4.89h12.62v4.55h-17.67V10.62z"/><defs><linearGradient id="paint0_linear" x1="21.924" x2="21.924" y1="0" y2="43.848" gradientUnits="userSpaceOnUse"><stop stop-color="#fff"/><stop offset="1" stop-color="#fff" stop-opacity="0"/></linearGradient><linearGradient id="paint1_linear" x1="118.067" x2="118.067" y1="10.226" y2="34.276" gradientUnits="userSpaceOnUse"><stop stop-color="#fff"/><stop offset="1" stop-color="#fff" stop-opacity="0"/></linearGradient></defs></svg>
